X: 20682
T: BRIDGE'S HORNPIPE
C:
%R: hornpipe, reel
B: Elias Howe "The Musician's Companion" 1843 p.68 #2
S: http://imslp.org/wiki/The_Musician's_Companion_(Howe,_Elias)
Z: 2015 John Chambers <jc:trillian.mit.edu>
N: The rhythm isn't quite right at the strains' boundaries; not fixed.
M: 2/4
L: 1/16
K: C
% - - - - - - - - - - - - - - - - - - - - - - - - -
|:\
CCCE GAGE | Ddd^c dAAB |\
cBcA Gcfa | gefd e2cc ::\
c2 |\
cdec gcec | defg afde |
cdec gcec | ded^c dAAB |\
cdec gcec | defg afde |\
cdcA Gcfa | gefd e2cc :|
% - - - - - - - - - - - - - - - - - - - - - - - - -

%%sep 1 1 500

